X: 184
T: Green Grow the Rashes
M:4/4
R:song
L:1/8
Z:Alf Warnock - alf0@rogers.com
K:Bb
%%text Verse
F2|"Bb"B2d2 d3c|d2B2 B3d|"Cm"c2g2 g3f|g2c2 c3d|
"Eb"e3d e2g2|"Bb"f2"Dm"dc "Gm"B3d|"Cm"c2e2 d2c2|"F11"BG3 F5|F6||
%%text Chorus
"Bb"d4 d3c|d2B2 B4|"Cm"g4 g3f|g2c2 c3d|
"Eb"e3d e2g2|"Bb"f2"Dm"dc "Gm"B3d|"Cm"c2e2 d2c2|"F11"BG3 F5|F6||

